X:37
T: Die Brombeerpflueckerin
N: Q0147C
O: Mitteleuropa, Oesterreich, Traismauer
N: Zweistimmig notiert, Unterstimme kodiert.
N: Vierte Zeile refrainartig.
R: Ballade, Verfuehrung, Schwangerschaft; bei der Arbeit
M: 6/8
L: 1/16
K: G
D2 | G4G2B4G2 | A2A2D2z4
DD | A4B2c4F2 | G4z6
GG | B4G2B4G2 | A2d2d2d4
AA | A4ddc4F2 | G4B2B4
GG | A4B2c4F2 | G4z6
GG | B4G2B4G2 | A2d2d2d4
AA | A4ddc4F2 | G4B2B4
GG | A4B2c4F2 | G4z6

@@@ Tune index: 1640
